X: 1341
T: Duncan Davidson.   a Strathspey.
%R: strathspey
B: Niel Gow & Sons "Complete Repository" v.1 p.34 #1
Z: 2021 John Chambers <jc:trillian.mit.edu>
M: C|
L: 1/8
K: D
% - - - - - - - - - -
% Voice 1 formatted for compactness and proofreading.
V: 1 staves=2
F |\
D2A>B A>FA<B | D/D/D d>B A>FE>F | D<D A>B A>Bde | f>def d/d/d ~d :| g | Tf>edf Tg>fea | c>Ae>A f>Aeg |
Tf>edf Tg>fea | c>Ae>f d/d/d d>g || Tf>edf Tg>fea | c>Ae>A f>Aeg | f>dg>e a>fb>g | Tf>def d/d/d ~d |]
% - - - - - - - - - -
% Voice 2 preserves the book's staff layout.
V: 2 clef=bass middle=d
z |\
d2d2 d2d2 | d2d2 d2A2 | d2d2 d2f2 | a2A2 d2d :| z | d2d'2 d2d2 | a2[a2c2] [a2d2][a2c2] |
d2d2 d2d2 | a2A2 d2d2 || d'2d'2 d'2d'2 | a2c'2 d'2c'2 | d'2a2 f2g2 | a2A2 d2d |]


